findly-builder/apps/searchassist/src/assets/icons/iconTask.svg

<svg width="14" height="13" viewBox="0 0 14 13" fill="none" xmlns="http://www.w3.org/2000/svg">
<path d="M0.776367 8C0.776367 8.54688 1.22949 9 1.77637 9L4.77637 9C5.32324 9 5.77637 8.54687 5.77637 8L5.77637 7L6.77637 7L6.77637 9.5C6.77637 10.3242 7.45215 11 8.27637 11L8.77637 11L8.77637 12C8.77637 12.5469 9.22949 13 9.77637 13L12.7764 13C13.3232 13 13.7764 12.5469 13.7764 12L13.7764 9C13.7764 8.45312 13.3232 8 12.7764 8L9.77637 8C9.22949 8 8.77637 8.45312 8.77637 9L8.77637 10L8.27637 10C7.99512 10 7.77637 9.78125 7.77637 9.5L7.77637 3.5C7.77637 3.21875 7.99512 3 8.27637 3L8.77637 3L8.77637 4C8.77637 4.54687 9.22949 5 9.77637 5L12.7764 5C13.3232 5 13.7764 4.54687 13.7764 4L13.7764 0.999999C13.7764 0.453124 13.3232 -5.48441e-07 12.7764 -5.24537e-07L9.77637 -3.93402e-07C9.22949 -3.69498e-07 8.77637 0.453125 8.77637 1L8.77637 2L8.27637 2C7.45215 2 6.77637 2.67578 6.77637 3.5L6.77637 6L5.77637 6L5.77637 5C5.77637 4.45312 5.32324 4 4.77637 4L1.77637 4C1.22949 4 0.776367 4.45312 0.776367 5L0.776367 8ZM1.77637 8L1.77637 5L4.77637 5L4.77637 8L1.77637 8ZM9.77637 12L9.77637 9L12.7764 9L12.7764 12L9.77637 12ZM9.77637 4L9.77637 1L12.7764 0.999999L12.7764 4L9.77637 4Z" fill="#5F6368"/>
</svg>

<svg width="14" height="13" fill="none" xmlns="http://www.w3.org/2000/svg"><path d="M.776 8c0 .547.453 1 1 1h3c.547 0 1-.453 1-1V7h1v2.5c0 .824.676 1.5 1.5 1.5h.5v1c0 .547.453 1 1 1h3c.547 0 1-.453 1-1V9c0-.547-.453-1-1-1h-3c-.547 0-1 .453-1 1v1h-.5a.494.494 0 0 1-.5-.5v-6c0-.281.22-.5.5-.5h.5v1c0 .547.453 1 1 1h3c.547 0 1-.453 1-1V1c0-.547-.453-1-1-1h-3c-.547 0-1 .453-1 1v1h-.5c-.824 0-1.5.676-1.5 1.5V6h-1V5c0-.547-.453-1-1-1h-3c-.547 0-1 .453-1 1v3Zm1 0V5h3v3h-3Zm8 4V9h3v3h-3Zm0-8V1h3v3h-3Z" fill="#5F6368"/></svg>
